X: 726
T: Gaizu guomindang tongshuaibu
L: 1/8
M: 4/4
K: G
B2A Bd2e d [I:setbarnb 1]| 
B2A cB4 | 
B2A Bd2e d | 
B2A cB4 | 
B2A Bd2e d | 
B2A B B G F E | 
d2>e2 B A G F | 
E2D FE4 |]

@@@ Tune index: 9600
